src/lib/packages/icons/src/assets/filled/image-upload.svg

<svg width="24" height="24" viewBox="0 0 24 24" fill="none" xmlns="http://www.w3.org/2000/svg">
<path d="M21.75 11.0001V17.0001C21.75 19.4181 20.418 20.7501 18 20.7501H6C3.582 20.7501 2.25 19.4181 2.25 17.0001V7.00012C2.25 4.58212 3.582 3.25012 6 3.25012H14C14.414 3.25012 14.75 3.58612 14.75 4.00012C14.75 4.41412 14.414 4.75012 14 4.75012H6C4.423 4.75012 3.75 5.42312 3.75 7.00012V16.2501L6.29004 13.7101C6.68004 13.3201 7.31996 13.3201 7.70996 13.7101L8.65002 14.65C8.84002 14.84 9.15998 14.84 9.34998 14.65L14.29 9.71008C14.68 9.32008 15.32 9.32008 15.71 9.71008L20.25 14.2501V11.0001C20.25 10.5861 20.586 10.2501 21 10.2501C21.414 10.2501 21.75 10.5861 21.75 11.0001ZM7.99304 7.75012C7.30404 7.75012 6.75 8.31012 6.75 9.00012C6.75 9.69012 7.31395 10.2501 8.00195 10.2501C8.69095 10.2501 9.25 9.69012 9.25 9.00012C9.25 8.31012 8.69195 7.75012 8.00195 7.75012H7.99304ZM18.53 5.03014L18.75 4.81017V7.00012C18.75 7.41412 19.086 7.75012 19.5 7.75012C19.914 7.75012 20.25 7.41412 20.25 7.00012V4.81115L20.47 5.03112C20.616 5.17712 20.808 5.25109 21 5.25109C21.192 5.25109 21.384 5.17812 21.53 5.03112C21.823 4.73812 21.823 4.26309 21.53 3.97009L20.03 2.47009C19.961 2.40109 19.878 2.34622 19.786 2.30822C19.603 2.23222 19.396 2.23222 19.213 2.30822C19.121 2.34622 19.038 2.40109 18.969 2.47009L17.469 3.97009C17.176 4.26309 17.176 4.73812 17.469 5.03112C17.762 5.32412 18.237 5.32314 18.53 5.03014Z" fill="currentColor"/>
</svg>

<svg xmlns="http://www.w3.org/2000/svg" width="24" height="24" fill="none"><path fill="currentColor" d="M21.75 11v6c0 2.418-1.332 3.75-3.75 3.75H6c-2.418 0-3.75-1.332-3.75-3.75V7c0-2.418 1.332-3.75 3.75-3.75h8a.75.75 0 0 1 0 1.5H6c-1.577 0-2.25.673-2.25 2.25v9.25l2.54-2.54c.39-.39 1.03-.39 1.42 0l.94.94c.19.19.51.19.7 0l4.94-4.94c.39-.39 1.03-.39 1.42 0l4.54 4.54V11a.75.75 0 0 1 1.5 0ZM7.993 7.75c-.689 0-1.243.56-1.243 1.25s.564 1.25 1.252 1.25a1.25 1.25 0 0 0 0-2.5h-.009ZM18.53 5.03l.22-.22V7a.75.75 0 0 0 1.5 0V4.811l.22.22a.748.748 0 0 0 1.06 0 .75.75 0 0 0 0-1.06l-1.5-1.5a.749.749 0 0 0-.817-.163.749.749 0 0 0-.244.162l-1.5 1.5a.75.75 0 1 0 1.061 1.06Z"/></svg>
